X:1
T:Title
%%score 1 { 2 | 3 }
L:1/8
Q:1/4=115
M:3/4
K:Ab
V:1 treble nm="Grand Piano, Unnamed-000"
V:2 bass nm="Choir Pad, Valparaíso,W  H Doane 1875"
V:3 bass 
V:1
 [CE]2 [CE]2 E2 | [DF]>[DG] [CA]2 [CE]2 | [EA]2 [EB]2 E2 | [EB]2 [Ec]4 | [Ec]2 [Fd]2 [DF]2 | %5
w: By~William~Howard~Doane,1875 * *|||||
 [Fd]2 [Ec]2 [EA]2 | [Ec]2 [=Dc]2 [DFB]2 | =D2 [EB]4 | [DE]2 [CE]2 E2 | [DF]>[DG] [CA]2 [CE]2 | %10
w: |||||
 [EA]2 [EB]2 E2 | [EB]2 [Ec]4 | [_Gc]2 [Fe]2 [Fd]2 | [FB]2 [EA]2 [EG]2 | [EA]2 [Ec]2 [Ec]2 | %15
w: |||||
 [DB]2 [CA]4- | [CA]2 z2 z2 |] %17
w: ||
V:2
 A,2 A,4 | B,>B, A,2 C2 | A,2 G,2 G,2 | G,2 A,4 | A,2 A,2 A,2 | A,2 A,2 A,2 | A,2 A,2 F,2 | %7
 B,A, G,4 | G,2 A,4 | B,>B, A,2 C2 | A,2 G,2 G,2 | G,2 A,4 | A,2 A,2 B,2 | D2 C2 B,2 | C2 A,2 A,2 | %15
 G,2 A,4- | A,2 z2 z2 |] %17
V:3
 A,,2 A,,2 C,2 | E,>E, A,,2 A,,2 | C,2 E,2 E,2 | E,2 A,,4 | A,,2 F,2 F,2 | F,2 A,,2 C,2 | %6
 A,,2 B,,2 B,,2 | B,,2 E,4 | E,2 A,,2 C,2 | E,>E, A,,2 A,,2 | C,2 E,2 E,2 | E,2 A,,4 | %12
 A,,2 D,2 D,2 | D,2 E,2 E,2 | E,2 E,2 E,2 | E,2 A,,4- | A,,2 z2 z2 |] %17

